wallet-web-app/src/assets/images/icons/paper-plane.svg

<?xml version="1.0" encoding="UTF-8"?>
<svg width="35px" height="36px" viewBox="0 0 35 36" version="1.1" xmlns="http://www.w3.org/2000/svg" xmlns:xlink="http://www.w3.org/1999/xlink">
    <!-- Generator: Sketch 48.2 (47327) - http://www.bohemiancoding.com/sketch -->
    <title>icons8-paper_plane@2x</title>
    <desc>Created with Sketch.</desc>
    <defs></defs>
    <g id="47-Wallet---Main-View" stroke="none" stroke-width="1" fill="none" fill-rule="evenodd" transform="translate(-232.000000, -882.000000)">
        <g id="Group-14" transform="translate(150.000000, 789.000000)" fill="#93A4AF" fill-rule="nonzero">
            <g id="icons8-paper_plane" transform="translate(82.000000, 93.000000)">
                <path d="M33.5631127,0.692307692 C33.4719673,0.703125 33.3861829,0.732872631 33.3057598,0.778846154 L0.364583333,18.7788462 C0.125995882,18.9086538 -0.0134038333,19.1682692 0.00804231373,19.4414061 C0.0321691176,19.7145436 0.214460784,19.9471154 0.471813725,20.0336538 L9.82230392,23.1274038 L8.92156863,32.4735577 C8.88403833,32.7764423 9.0502451,33.0685096 9.32904412,33.1902042 C9.60784314,33.3118994 9.9322149,33.2307692 10.122549,32.9927885 L16.0202206,26.2644231 L24.9203431,35.1129808 C25.0945924,35.2860577 25.3465841,35.3509615 25.582491,35.2833535 C25.8183978,35.2157455 25.9980089,35.0291465 26.0569853,34.7884615 L34.2922794,1.55769231 C34.3539371,1.338642 34.3003219,1.10336538 34.1555605,0.930288462 C34.0081192,0.757211538 33.7882966,0.667968715 33.5631127,0.692307692 Z M32.5765931,2.72596154 L25.0061275,33.2740385 L16.8780637,25.1826923 L28.6948529,8.71875 C28.9548865,8.442909 28.9468447,8.00751185 28.6734069,7.74519231 C28.3999697,7.48287277 27.9683669,7.49098592 27.7083333,7.76682692 L10.4442402,21.8725962 L2.40196078,19.2331731 L32.5765931,2.72596154 Z M24.5557598,12.1153846 L15.5484069,24.7283654 C15.5242802,24.755409 15.5028341,24.7851561 15.4840686,24.8149038 L15.4411765,24.8581731 C15.4250923,24.8798077 15.4116879,24.9014423 15.3982843,24.9230769 L10.4871324,30.4831731 L11.216299,22.9975962 L24.5557598,12.1153846 Z" id="Shape"></path>
            </g>
        </g>
    </g>
</svg>

<svg xmlns="http://www.w3.org/2000/svg" width="35" height="36" viewBox="0 0 35 36">
    <path fill="#93A4AF" fill-rule="nonzero" d="M33.563.692a.676.676 0 0 0-.257.087l-32.941 18a.688.688 0 1 0 .107 1.255l9.35 3.093-.9 9.347a.69.69 0 0 0 .407.716c.279.122.603.04.794-.197l5.897-6.729 8.9 8.849a.68.68 0 0 0 1.137-.325l8.235-33.23a.69.69 0 0 0-.136-.628.68.68 0 0 0-.593-.238zm-.986 2.034l-7.57 30.548-8.129-8.091L28.695 8.719a.692.692 0 0 0-.022-.974.678.678 0 0 0-.965.022L10.444 21.873l-8.042-2.64L32.577 2.726zm-8.021 9.39l-9.008 12.612a.656.656 0 0 0-.064.087l-.043.043a.902.902 0 0 0-.043.065l-4.91 5.56.728-7.485 13.34-10.883z"/>
</svg>
